images/XeroName/Deltatime.svg

<svg xmlns="http://www.w3.org/2000/svg" width="1200" height="600" fill="none"><path fill="#303030" d="M0 1h1200v600H0z"/><path fill="#202020" d="m799.703 1.445-398.667 598a1 1 0 0 0 .833 1.555H1199c.55 0 1-.448 1-1V2c0-.552-.45-1-1-1H800.535c-.334 0-.646.167-.832.445z"/><g stroke="#ff5cff" stroke-linecap="round" stroke-width="16"><path d="m649.96 410.962-108.924-256.81" style="stroke:#612361;stroke-width:32;stroke-dasharray:none;stroke-opacity:1" transform="translate(-8.454 12.409)"/><path d="m643.034 410.962-108.925-256.81" style="stroke-width:32;stroke-dasharray:none" transform="translate(-8.454 12.409)"/></g><path d="m594.451 428.629-98.523-246.308c-.335-.838-1.521-.838-1.856 0l-98.523 246.308a1 1 0 0 0 .928 1.371h197.046a1 1 0 0 0 .928-1.371z" style="stroke:#606060;stroke-width:32;stroke-linecap:round;stroke-dasharray:none;stroke-opacity:1" transform="translate(-3.788 3.44)"/><path d="m584.451 418.629-98.523-246.308c-.335-.838-1.521-.838-1.856 0l-98.523 246.308a1 1 0 0 0 .928 1.371h197.046a1 1 0 0 0 .928-1.371z" style="stroke:#fff;stroke-width:32;stroke-dasharray:none;stroke-opacity:1" transform="translate(-3.788 3.44)"/><path d="M615 180h100m0 0v250m100-250H715" style="stroke:#606060;stroke-width:32;stroke-linecap:round;stroke-dasharray:none;stroke-opacity:1" transform="translate(3.21 3.371)"/><path d="M605 170h100m0 0v250m100-250H705" style="stroke:#fff;stroke-width:32;stroke-linecap:round;stroke-linejoin:round;stroke-dasharray:none;stroke-opacity:1" transform="translate(3.21 3.371)"/></svg>

<svg width="1200" height="600" viewBox="0 0 1200 600" fill="none" xmlns="http://www.w3.org/2000/svg">
<rect width="1200" height="600" fill="#303030"/>
<path d="M799.703 0.445282L401.036 598.445C400.593 599.11 401.07 600 401.869 600H1199C1199.55 600 1200 599.552 1200 599V1C1200 0.447715 1199.55 0 1199 0H800.535C800.201 0 799.889 0.167084 799.703 0.445282Z" fill="#202020"/>
<path d="M625 430L525 180" stroke="#612361" stroke-width="16" stroke-linecap="round"/>
<path d="M615 180H715M815 180H715M715 180V430M594.451 428.629L495.928 182.321C495.593 181.483 494.407 181.483 494.072 182.321L395.549 428.629C395.286 429.285 395.77 430 396.477 430H593.523C594.23 430 594.714 429.285 594.451 428.629Z" stroke="#606060" stroke-width="16" stroke-linecap="round"/>
<path d="M605 170H705M805 170H705M705 170V420M584.451 418.629L485.928 172.321C485.593 171.483 484.407 171.483 484.072 172.321L385.549 418.629C385.286 419.285 385.77 420 386.477 420H583.523C584.23 420 584.714 419.285 584.451 418.629Z" stroke="white" stroke-width="16" stroke-linecap="round"/>
<path d="M615 420L515 170" stroke="#FF5CFF" stroke-width="16" stroke-linecap="round"/>
</svg>
